app/assets/images/icons/warn.svg

<?xml version="1.0" encoding="UTF-8" standalone="no"?>
<svg width="30px" height="30px" viewBox="0 0 30 30" version="1.1" xmlns="http://www.w3.org/2000/svg" xmlns:xlink="http://www.w3.org/1999/xlink">
    <!-- Generator: Sketch 3.7.2 (28276) - http://www.bohemiancoding.com/sketch -->
    <title>warn</title>
    <desc>Created with Sketch.</desc>
    <defs></defs>
    <g id="Icons" stroke="none" stroke-width="1" fill="none" fill-rule="evenodd">
        <g id="warn" fill="#050505">
            <path d="M12.7739985,3.55853011 C14.0034306,1.48224897 15.9946511,1.4787317 17.2261658,3.55853011 L29.4726531,24.2405604 C30.7020851,26.3168416 29.7095989,28 27.2465695,28 L2.75359484,28 C0.294730774,28 -0.704003496,26.3203589 0.527511223,24.2405604 L12.7739985,3.55853011 L12.7739985,3.55853011 Z M14.4499833,5.06981341 C14.7537945,4.55501697 15.2443934,4.55166792 15.5501811,5.06981341 L27.2522851,24.8985779 C27.5560963,25.4133743 27.3137616,25.8306993 26.6857221,25.8306993 L3.31444225,25.8306993 C2.6977269,25.8306993 2.44209154,25.4167234 2.74787924,24.8985779 L14.4499833,5.06981341 Z M13.5,11.497101 C13.5,10.670275 14.1657972,10 15,10 C15.8284271,10 16.5,10.671656 16.5,11.497101 L16.5,18.502899 C16.5,19.329725 15.8342028,20 15,20 C14.1715729,20 13.5,19.328344 13.5,18.502899 L13.5,11.497101 Z M15,24 C15.8284271,24 16.5,23.3284271 16.5,22.5 C16.5,21.6715729 15.8284271,21 15,21 C14.1715729,21 13.5,21.6715729 13.5,22.5 C13.5,23.3284271 14.1715729,24 15,24 Z" id="Triangle-1"></path>
        </g>
    </g>
</svg>

<?xml version="1.0" encoding="UTF-8" standalone="no"?>
<svg width="30" height="30" viewBox="0 0 30 30" xmlns="http://www.w3.org/2000/svg">
  <path d="M12.774 3.559c1.23-2.077 3.22-2.08 4.452 0L29.473 24.24c1.23 2.076.237 3.759-2.226 3.759H2.754C.294 28-.704 26.32.528 24.24L12.774 3.56zm1.676 1.51c.304-.514.794-.517 1.1 0L27.252 24.9c.304.514.062.932-.566.932H3.314c-.616 0-.872-.414-.566-.932L14.45 5.069zm-.95 6.428c0-.827.666-1.497 1.5-1.497a1.5 1.5 0 0 1 1.5 1.497v7.006C16.5 19.33 15.834 20 15 20a1.5 1.5 0 0 1-1.5-1.497v-7.006zM15 24a1.5 1.5 0 1 0 0-3 1.5 1.5 0 0 0 0 3z" fill="#050505" fill-rule="evenodd"/>
</svg>
